icons/lines/bank.svg

<svg xmlns="http://www.w3.org/2000/svg" width="24" height="24" viewBox="0 0 24 24" fill="none" stroke="currentColor" stroke-width="2" stroke-linecap="round" stroke-linejoin="round" >
  <path d="M12.37 2.15003L21.37 5.75C21.72 5.89 22 6.31 22 6.68V10C22 10.55 21.55 11 21 11H3C2.45 11 2 10.55 2 10V6.68C2 6.31 2.28 5.89 2.63 5.75L11.63 2.15003C11.83 2.07003 12.17 2.07003 12.37 2.15003Z" stroke-miterlimit="10"/>
  <path d="M22 22H2V19C2 18.45 2.45 18 3 18H21C21.55 18 22 18.45 22 19V22Z" stroke-miterlimit="10"/>
  <path d="M4 18V11" stroke-miterlimit="10"/>
  <path d="M8 18V11" stroke-miterlimit="10"/>
  <path d="M12 18V11" stroke-miterlimit="10"/>
  <path d="M16 18V11" stroke-miterlimit="10"/>
  <path d="M20 18V11" stroke-miterlimit="10"/>
  <path d="M1 22H23" stroke-miterlimit="10"/>
  <path d="M12 8.5C12.8284 8.5 13.5 7.82843 13.5 7C13.5 6.17157 12.8284 5.5 12 5.5C11.1716 5.5 10.5 6.17157 10.5 7C10.5 7.82843 11.1716 8.5 12 8.5Z" stroke-miterlimit="10"/>
  </svg>

<svg xmlns="http://www.w3.org/2000/svg" width="24" height="24" viewBox="0 0 24 24" fill="none" stroke="currentColor" stroke-width="2" stroke-linecap="round" stroke-linejoin="round">
  <path d="M1 22h22" />
  <path d="M12 18v-7" />
  <path d="M16 18v-7" />
  <path d="M2 22v-3a1 1 0 0 1 1-1h18a1 1 0 0 1 1 1v3" />
  <path d="M20 18v-7" />
  <path d="M21.37 5.75c.35.14.63.56.63.93V10a1 1 0 0 1-1 1H3a1 1 0 0 1-1-1V6.68c0-.37.28-.79.63-.93l9-3.6a1.17 1.17 0 0 1 .74 0z" />
  <path d="M4 18v-7" />
  <path d="M8 18v-7" />
  <circle cx="12" cy="7" r="1.5" />
</svg>
